X: 10313
M: 2/4
L: 1/16
K: G
|:\
c2de e2dc | B2cd d2cB | A2Bc B2AB | G3G G4 :|
|:\
d2ed d2cB | e3e e4 | c2c c2BA | d3d d4 |\


